X:0681
T:Money Musk.
M:C|
L:1/8
Q:1/4=120
I: :: ::
N:bar 8 printed |e>cA>d BG/G/ ef|
Z:Jack Campin * www.campin.me.uk * 2009
K:G
e   |d>GB>G d>Gc>e|d>GB>G AB/A/ c>e|d>GB>G Bc/d/ dg |e>cA>c B>GG:|
e/f/|g>dB>g d>gB>g|g>cc>g B>g```A>f|g>de>g d>g```B>g|e>cA>d BGG
e/f/|g>dB>g B>gA>f|g>dc>g B>g```A>f|g>de>f d>g```c>g|B>gA>g B>GG|]

